X:13
T:Au bord de la rivire*
M:2/4
L:1/8
Q:1/4=120
K:C
G2 d2 | B2 A2 | B2 c2 | 
cB cc | ec e2 | d2 d^f | dd e^f | gg/^f/ g2 | 
B2 cB | A2 G^F | GA B2 | G2  B2 cB | A2 [Gd][^F B] | [Gc]A B2 | G2 |
W:Elle se tient sur la rive
W:Et la belle hsite  plonger
W:A plonger dans la rivire jolie
W:  Viens ma belle au bord de la rivire
W:  Et regarde le triste sort qui te guette
